actions/symbolic/mail-reply-all-symbolic-rtl.svg

<?xml version="1.0" encoding="UTF-8" standalone="no"?>
<svg
   xmlns:dc="http://purl.org/dc/elements/1.1/"
   xmlns:cc="http://creativecommons.org/ns#"
   xmlns:rdf="http://www.w3.org/1999/02/22-rdf-syntax-ns#"
   xmlns:svg="http://www.w3.org/2000/svg"
   xmlns="http://www.w3.org/2000/svg"
   id="svg6"
   version="1.1"
   width="16"
   height="16">
  <metadata
     id="metadata12">
    <rdf:RDF>
      <cc:Work
         rdf:about="">
        <dc:format>image/svg+xml</dc:format>
        <dc:type
           rdf:resource="http://purl.org/dc/dcmitype/StillImage" />
        <dc:title></dc:title>
      </cc:Work>
    </rdf:RDF>
  </metadata>
  <defs
     id="defs10" />
  <path
     id="path873-5-7"
     style="opacity:1;fill:#555761;stroke:none;stroke-width:4;stroke-linecap:round;stroke-linejoin:round;stop-color:#000000"
     d="m 10.773438,2.5 c 0.232409,0 0.439646,0.097243 0.582031,0.2519531 l 4.43164,4.2441407 C 15.918721,7.1304738 16,7.3103732 16,7.5097656 16,7.7091578 15.91872,7.8890578 15.787109,8.0234375 l -4.43164,4.2246095 C 11.213084,12.40275 11.005847,12.5 10.773438,12.5 10.342219,12.5 9.9960939,12.16568 9.9960939,11.75 V 11.115234 L 12.478516,8.7480469 a 1.0009368,1.0009368 0 0 0 0.02344,-0.023437 c 0.299914,-0.3062251 0.498047,-0.743463 0.498047,-1.2148438 0,-0.471374 -0.198126,-0.9086149 -0.498047,-1.2148437 a 1.0009368,1.0009368 0 0 0 -0.02344,-0.021484 L 9.9960939,3.8964844 V 3.25 C 9.9960938,2.8343185 10.342219,2.5 10.773438,2.5 Z m -4.0000004,0 c 0.2324095,0 0.4396466,0.097243 0.5820313,0.2519531 L 11.787109,6.9960938 C 11.918721,7.1304738 12,7.3103732 12,7.5097656 12,7.7091578 11.91872,7.8890578 11.787109,8.0234375 L 7.3554689,12.248047 C 7.2130843,12.40275 7.0058471,12.5 6.7734376,12.5 6.3422192,12.5 5.9960941,12.16568 5.9960941,11.75 V 9 h -1.246094 c -2.016377,0 -3.712942,1.668199 -3.75,3.503906 0,0.277358 -0.209013,0.501953 -0.488281,0.501953 -0.333523,0 -0.509766,-0.178277 -0.509766,-0.501953 v -1.667968 c -0.0564,-2.670119 1.680387,-4.8398442 5.041016,-4.8398442 h 0.953125 V 3.25 c 0,-0.4156815 0.3461251,-0.75 0.7773435,-0.75 z" />
</svg>

<svg
        xmlns='http://www.w3.org/2000/svg'
        xmlns:svg='http://www.w3.org/2000/svg'
        id='svg6'
        width='16'
        height='16'>
  <path
          id='path873-5-7'
          opacity='1'
          fill='url(#gpa:foreground) #555761'
          fill-opacity='1'
          fill-rule='nonzero'
          stroke='none'
          stroke-width='4'
          stroke-linecap='round'
          stroke-linejoin='round'
          d='M 10.7734 2.5 C 11.0058 2.5, 11.2131 2.59724, 11.3555 2.75195 L 15.7871 6.99609 C 15.9187 7.13047, 16 7.31037, 16 7.50977 C 16 7.70916, 15.9187 7.88906, 15.7871 8.02344 L 11.3555 12.248 C 11.2131 12.4028, 11.0058 12.5, 10.7734 12.5 C 10.3422 12.5, 9.99609 12.1657, 9.99609 11.75 L 9.99609 11.1152 L 12.4785 8.74805 A 1.00094 1.00094 0 0 0 12.502 8.72461 C 12.8019 8.41838, 13 7.98115, 13 7.50977 C 13 7.03839, 12.8019 6.60115, 12.502 6.29492 A 1.00094 1.00094 0 0 0 12.4785 6.27344 L 9.99609 3.89648 L 9.99609 3.25 C 9.99609 2.83432, 10.3422 2.5, 10.7734 2.5 Z M 6.77344 2.5 C 7.00585 2.5, 7.21308 2.59724, 7.35547 2.75195 L 11.7871 6.99609 C 11.9187 7.13047, 12 7.31037, 12 7.50977 C 12 7.70916, 11.9187 7.88906, 11.7871 8.02344 L 7.35547 12.248 C 7.21308 12.4028, 7.00585 12.5, 6.77344 12.5 C 6.34222 12.5, 5.99609 12.1657, 5.99609 11.75 L 5.99609 9 L 4.75 9 C 2.73362 9, 1.03706 10.6682, 1 12.5039 C 1 12.7813, 0.790987 13.0059, 0.511719 13.0059 C 0.178196 13.0059, 0.0019531 12.8276, 0.0019531 12.5039 L 0.0019531 10.8359 C -0.0544469 8.16582, 1.68234 5.99609, 5.04297 5.99609 L 5.99609 5.99609 L 5.99609 3.25 C 5.99609 2.83432, 6.34222 2.5, 6.77344 2.5 Z'
          class="foreground">
  </path>
</svg>
